X: 30615
T: One That Was Lost, The
R: jig
M: 6/8
K: Edorian
g2f|:edB BAF|FED EFA|BAF DFA|FAA def|
edB BAF|FED EFA|dfb afd|1 ~e3 g2f:|2 ~e3 e2d||
Bee efa|baf edB|~d3 Bdd|AFA ded|
Bee efa|baf edB|dfb afd|~e3 e2d|
Bee efa|baf edB|~d3 Bdd|AFA def|
~g2e fed|BeB dBA|dfb afd|~e3 g2f||

